X: 62
T: JIG: Swallowtail
C: C: Trad.; S: Various
C: Set Leaders: Olya, Andrey
Z: Anton Zille ed., Oleg Naumov arr.; fidicen at The Session
N: https://thesession.org/members/26966/sets/92387
R: Jig
M: 6/8
L: 1/8
Q: 3/8=116
K: Edor
|:"Em"GEE BEE|"Em"GEE BAG|"D"FDD ADD|"D"dcd "Bm"AGF|
"Em"GEE BEE|"Em"GEG B2c|"D"dcd "Bm"AGF|"Em"GEE E3:||
|:"Em"Bcd e2f|"Em"e2f edB|"Em"Bcd e2f|"Em"edB "D"d3|
"Em"Bcd e2f|"A"e2f edc|"D"dcd "Bm"AGF|"Em"GEE E3:||

